img/github-4.svg

<svg fill="none" height="29" viewBox="0 0 29 29" width="29" xmlns="http://www.w3.org/2000/svg" xmlns:xlink="http://www.w3.org/1999/xlink"><clipPath id="a"><path d="m.118652.472656h28.0519v28h-28.0519z"/></clipPath><g clip-path="url(#a)"><path clip-rule="evenodd" d="m14.1446.472656c-7.74438 0-14.025948 6.427674-14.025948 14.352244 0 6.3396 4.044298 11.7106 9.551428 13.6478.68842.088.94652-.3522.94652-.7044s0-1.2327 0-2.4655c-3.87218.8805-4.73267-1.9371-4.73267-1.9371-.60234-1.6729-1.54888-2.1132-1.54888-2.1132-1.29073-.8805.08605-.8805.08605-.8805 1.37678.0881 2.15122 1.4969 2.15122 1.4969 1.29074 2.2012 3.26986 1.5849 4.04428 1.2327.0861-.9686.5163-1.5849.8605-1.9371-3.09775-.3522-6.36761-1.5849-6.36761-7.1321 0-1.5849.51629-2.8176 1.46283-3.8742-.08605-.26416-.60234-1.76102.1721-3.69812 0 0 1.20468-.3522 3.87218 1.49685 1.1187-.3522 2.3233-.44025 3.528-.44025s2.4094.1761 3.528.44025c2.6676-1.84905 3.8722-1.49685 3.8722-1.49685.7745 1.9371.2582 3.43396.1721 3.78612.8605.9686 1.4629 2.2894 1.4629 3.8743 0 5.5471-3.2699 6.6918-6.3677 7.044.5163.4402.9466 1.3207.9466 2.6415v3.9623c0 .3522.2581.7924.9465.7044 5.5932-1.9372 9.5515-7.3082 9.5515-13.6478-.0861-7.92457-6.3677-14.352244-14.1121-14.352244z" fill="#000" fill-rule="evenodd"/></g></svg>

<svg width="29" height="29" viewBox="0 0 29 29" fill="none" xmlns="http://www.w3.org/2000/svg">
<g clip-path="url(#clip0_3190_3497)">
<path fill-rule="evenodd" clip-rule="evenodd" d="M14.1446 0.472656C6.40022 0.472656 0.118652 6.90033 0.118652 14.8249C0.118652 21.1645 4.16295 26.5355 9.67008 28.4727C10.3585 28.5607 10.6166 28.1205 10.6166 27.7683C10.6166 27.4161 10.6166 26.5356 10.6166 25.3028C6.74442 26.1833 5.88393 23.3657 5.88393 23.3657C5.28159 21.6928 4.33505 21.2525 4.33505 21.2525C3.04432 20.372 4.4211 20.372 4.4211 20.372C5.79788 20.4601 6.57232 21.8689 6.57232 21.8689C7.86306 24.0701 9.84218 23.4538 10.6166 23.1016C10.7027 22.133 11.1329 21.5167 11.4771 21.1645C8.37935 20.8123 5.10949 19.5796 5.10949 14.0324C5.10949 12.4475 5.62578 11.2148 6.57232 10.1582C6.48627 9.89404 5.96998 8.39718 6.74442 6.46008C6.74442 6.46008 7.9491 6.10788 10.6166 7.95693C11.7353 7.60473 12.9399 7.51668 14.1446 7.51668C15.3493 7.51668 16.554 7.69278 17.6726 7.95693C20.3402 6.10788 21.5448 6.46008 21.5448 6.46008C22.3193 8.39718 21.803 9.89404 21.7169 10.2462C22.5774 11.2148 23.1798 12.5356 23.1798 14.1205C23.1798 19.6676 19.9099 20.8123 16.8121 21.1645C17.3284 21.6047 17.7587 22.4852 17.7587 23.806C17.7587 25.7431 17.7587 27.24 17.7587 27.7683C17.7587 28.1205 18.0168 28.5607 18.7052 28.4727C24.2984 26.5355 28.2567 21.1645 28.2567 14.8249C28.1706 6.90033 21.889 0.472656 14.1446 0.472656Z" fill="black"/>
</g>
<defs>
<clipPath id="clip0_3190_3497">
<rect width="28.0519" height="28" fill="white" transform="translate(0.118652 0.472656)"/>
</clipPath>
</defs>
</svg>
